X:267758524301551
T:9-7-5-9-9-7-2-9-5-10-4-7-5-10-9-10
%%setfont-1 Courier-Bold 8
T:$1K.516f::119:157:113:50:140:68:11:94:90:77:15:29:67:38:72:8::$0
T:$1Perm. No.: 267758524301551$0
M:3/8
L:1/8
Q:1/8=111
%%staves [1 2]
V:1 clef=treble
V:2 clef=bass
K:C
%1
[V:1]|: e/c/g/e/c'/g/ |\
[V:2]|: [E,2C,2]z |\
%2
[V:1] e/d/e/g/c'/g/ |\
[V:2] C,2z |\
%3
[V:1] fdB |\
[V:2] [B,2G,2]z |\
%4
[V:1] ce/c/G |\
[V:2] [G,2E,2]z |\
%5
[V:1] AA/d/^f |\
[V:2] [^F,C,][F,C,][A,C,] |\
%6
[V:1] gb/g/d/g/ |\
[V:2] B,,2z |\
%7
[V:1] e/c/B/A/G/^F/ \
[V:2] C,D,D,, \
%8a
[V:1]|1 [g2d2B2G2]z :|2
[V:2]|1 G,,G,/=F,/E,/D,/ :|2
%8b
[V:1] [g2d2B2G2]z |:\
[V:2] G,,B,/G,/^F,/E,/ |:\
%9
[V:1] ^f/a/d'/a/f/a/ |\
[V:2] [A,2C,2][A,C,] |\
%10
[V:1] g/b/gd |\
[V:2] [D,2B,,2][G,B,,] |\
%11
[V:1] eg/e/c |\
[V:2] [G,2C,2][E,C,] |\
%12
[V:1] B/d/g/d/B |\
[V:2] G,2G,, |\
%13
[V:1] c/B/c/e/G/c/ |\
[V:2] [E,2C,2][G,E,] |\
%14
[V:1] cGe |\
[V:2] [E,/C,/]G,/[E,/C,/]G,/[E,/C,/]G,/ |\
%15
[V:1] f/e/d/c/B/d/ |\
[V:2] F,2G, |\
%16
[V:1] c2z :|]
[V:2] C,G,,C,, :|]
